!!!ONB: MCCC : IJH0457_03 : Extracted Monophonic Melody
!!!COM: Haydn, Joseph
!!!OPR: String Quartet in F minor
!!!OMV: 3
!!!SCT: Hob.III:61 ; Op.55 No.2
!!!ODT: 1788///
**kern
*thru
*k[b-e-a-d-]
*f:
*clefF
*M3/4
4cc
=2
4cc
4cc
4cc
=3
4cc
4b-
4b-
=4
4b-
4a
4a
=5
8a
8g
8b-
8a
8g
8f
=6
8f
8e
8d
8c
4cc
=7
4a
4f
8e
8f
=8
4b-
4a
8e
8f
=9
4.dd
8ee
8ff
8gg
=10
4.cc
8dd
8ee
8ff
=11
8ee
8dd
8cc
8b-
8a
8g
=12
4f
2r
=13
2.r
=14
2r
8ccc
8aa
=15
8gg
8ff
8bb-
8aa
8gg
8ff
=16
8ff
8ee
8aa
8gg
8ff
8ee
=17
8dd
8ddd
8ddd
8ccc
8bb-
8aa
=18
4gg
2r
=19
2.r
=20
2.r
=21
8a
8aa
8b-
8bb-
4r
=22
8g
8gg
8a
8aa
4r
=23
8ccc
8bb-
8aa
8gg
8ff
8ee
=24
4ff
4r
4r
=25
2.r
=26
2.r
=27
2r
4cc
=28
4cc
4cc
4cc
=29
4cc
4b-
4b-
=30
4b-
4a
4dd
=31
4b-
4g
8f#
8g
=32
4cc
4b-
8f#
8g
=33
4ee-
4dd
8cc#
8dd
=34
4bb-
4aa
4cc
=35
4b-
8dd
8cc
8b-
8a
=36
4g
4r
4b-
=37
4g
4e-
8d
8e-
=38
4a-
4g
4b-
=39
4b-
4b-
4b-
=40
4b-
4b
4cc
=41
4cc
4cc#
4dd
=42
4dd
4ee-
4ee
=43
4ff
4dd
4b
=44
4dd
4cc
4cc
=45
4a
4f
8e
8f
=46
4b-
4a
8e
8f
=47
4.dd
8ee
8ff
8gg
=48
4.cc
8dd
8ee
8ff
=49
8ee
8dd
8cc
8b-
8a
8g
=50
4f
4r
8e
8f
=51
4b-
4a
8e
8f
=52
4dd
4cc
8b
8cc
=53
8bb-
8gg
8ee
8cc
8b-
8g
=54
4ff
4r
4f
=55
4e
4g
4d-
=56
2c
4g
=57
4f
4a-
4d-
=58
2c
4a-
=59
4g
4b-
4d-
=60
4c
4ee-
4dd-
=61
4cc
4ee-
4g
=62
4a-
4r
4a-
=63
4g
4b-
4e-
=64
2d
4f
=65
4e-
4b-
4cc-
=66
2b-
4ee-
=67
4dd
4ff
4cc-
=68
4b-
4ee-
4b--
=69
4a-
4dd-
4cc
=70
2.b-[
=71
4b-]
4ee-
4dd-
=72
2.cc[
=73
4cc]
4aa-
4gg
=74
4ff
4dd-
4b
=75
4cc
4g
4a-
=76
4g
2r
=77
2r
4ff[
=78
4ff]
4ee
4r
=79
2r
4aa-[
=80
4aa-]
4gg
4r
=81
2r
4bb-[
=82
4bb-]
4gg
4ddd-
=83
4.ddd-
8ccc
16bb-
16aa-
16gg
16ff
=84
8ee
4.r
4bb-
=85
4aa-
4ccc
4ff
=86
4ee
4gg
4dd-
=87
4cc
4gg
4b
=88
4b-
4gg
4r
=89
2r
4d-
=90
4c
4a-
4B
=91
4c
4cc
4e
=92
4f
2r
==
*-
